mockup/templates/main/build/images/GROHE EcoJoy.svg

<svg xmlns="http://www.w3.org/2000/svg" width="48" height="48" viewBox="0 0 48 48">
  <g fill="none" fill-rule="evenodd" transform="translate(0 -.555)">
    <rect width="48" height="48" y=".555" fill="#132D52" rx="8"/>
    <path fill="#FEFEFE" d="M23.1099548,23.3930713 C23.1099548,26.074393 20.8460243,28.88928 17.3583026,28.88928 C15.1544765,28.88928 13.4732243,27.5152278 12.6401113,25.7755409 C12.6401113,25.7755409 12.5916939,25.7504974 12.4898504,25.4499757 L12.4714852,25.3765148 C12.2076939,24.7070191 12.0657647,23.9957843 12.0657647,23.2979061 C12.057433,19.8068452 15.2913809,17.8284104 16.7989983,12.9082017 C16.8774678,12.5592626 17.0928417,12.3104974 17.3967026,12.3104974 C17.7539896,12.3104974 17.9192765,12.5509148 18.0344765,12.9082017 C18.647207,14.83488 19.4769809,16.2773843 20.2883896,17.5061843 L20.2850504,17.4878191 C20.2850504,17.4878191 23.1099548,21.2960974 23.1099548,23.3930713"/>
    <path stroke="#FEFEFE" stroke-width=".326" d="M23.1099548,23.3930713 C23.1099548,26.074393 20.8460243,28.88928 17.3583026,28.88928 C15.1544765,28.88928 13.4732243,27.5152278 12.6401113,25.7755409 C12.6401113,25.7755409 12.5916939,25.7504974 12.4898504,25.4499757 L12.4714852,25.3765148 C12.2076939,24.7070191 12.0657647,23.9957843 12.0657647,23.2979061 C12.057433,19.8068452 15.2913809,17.8284104 16.7989983,12.9082017 C16.8774678,12.5592626 17.0928417,12.3104974 17.3967026,12.3104974 C17.7539896,12.3104974 17.9192765,12.5509148 18.0344765,12.9082017 C18.647207,14.83488 19.4769809,16.2773843 20.2883896,17.5061843 L20.2850504,17.4878191 C20.2850504,17.4878191 23.1099548,21.2960974 23.1099548,23.3930713 Z"/>
    <path fill="#B4BFCF" d="M13.0566678,26.4991304 C13.9732591,27.8798609 15.4725287,28.8916174 17.3591374,28.8916174 C20.8451896,28.8916174 23.10912,26.0733913 23.10912,23.3920696 C23.10912,21.5455304 22.1591374,20.2082087 21.0121461,18.5653565 L13.0566678,26.4991304 Z"/>
    <path stroke="#FEFEFE" stroke-width=".326" d="M13.0566678,26.4991304 C13.9732591,27.8798609 15.4725287,28.8916174 17.3591374,28.8916174 C20.8451896,28.8916174 23.10912,26.0733913 23.10912,23.3920696 C23.10912,21.5455304 22.1591374,20.2082087 21.0121461,18.5653565 L13.0566678,26.4991304 Z"/>
    <path fill="#FEFEFE" d="M27.3212661,7.15554783 C27.3212661,8.16062609 26.4714574,9.2157913 25.1641878,9.2157913 C24.337753,9.2157913 23.7066574,8.70323478 23.3961183,8.04876522 L23.3376835,7.92688696 L23.3310052,7.89850435 C23.2325009,7.64806957 23.1807169,7.3826087 23.1807169,7.12048696 C23.1740661,5.80987826 24.3895096,5.07026087 24.9554922,3.22372174 L25.1792139,3 L25.4179617,3.22372174 C25.6466922,3.94664348 25.9589009,4.48591304 26.2627617,4.94838261 L26.2610922,4.94170435 C26.2610922,4.94170435 27.3212661,6.36751304 27.3212661,7.15554783"/>
    <path stroke="#FEFEFE" stroke-width=".217" d="M27.3212661,7.15554783 C27.3212661,8.16062609 26.4714574,9.2157913 25.1641878,9.2157913 C24.337753,9.2157913 23.7066574,8.70323478 23.3961183,8.04876522 L23.3376835,7.92688696 L23.3310052,7.89850435 C23.2325009,7.64806957 23.1807169,7.3826087 23.1807169,7.12048696 C23.1740661,5.80987826 24.3895096,5.07026087 24.9554922,3.22372174 L25.1792139,3 L25.4179617,3.22372174 C25.6466922,3.94664348 25.9589009,4.48591304 26.2627617,4.94838261 L26.2610922,4.94170435 C26.2610922,4.94170435 27.3212661,6.36751304 27.3212661,7.15554783 Z"/>
    <path fill="#B4BFCF" d="M23.5500522,8.31973565 C23.8939826,8.84064 24.4566261,9.21629217 25.1645217,9.21629217 C26.4717913,9.21629217 27.3216,8.15945739 27.3216,7.15437913 C27.3216,6.4648487 26.964313,5.96064 26.5352348,5.34457043 L23.5500522,8.31973565 Z"/>
    <path stroke="#FEFEFE" stroke-width=".217" d="M23.5500522,8.31973565 C23.8939826,8.84064 24.4566261,9.21629217 25.1645217,9.21629217 C26.4717913,9.21629217 27.3216,8.15945739 27.3216,7.15437913 C27.3216,6.4648487 26.964313,5.96064 26.5352348,5.34457043 L23.5500522,8.31973565 Z"/>
    <path fill="#FEFEFE" d="M35.5827757,17.9132243 C35.5827757,19.5877983 34.1669843,21.34752 31.9882017,21.34752 C30.6108104,21.34752 29.5606539,20.4893635 29.0414191,19.400807 C29.0414191,19.400807 29.0080278,19.3857809 28.9445843,19.1987896 L28.9328974,19.1503722 C28.76928,18.7329809 28.6807766,18.2905461 28.6807766,17.85312 C28.6741148,15.6693287 30.6976278,14.43552 31.6392626,11.3568417 C31.68768,11.1397983 31.8229148,10.9861983 32.0132452,10.9861983 C32.2336278,10.9861983 32.3388104,11.1347896 32.4106017,11.3568417 C32.7929322,12.5639374 33.3138365,13.4655026 33.8197148,14.2335026 L33.8163757,14.2201461 C33.8163757,14.2201461 35.5827757,16.6009461 35.5827757,17.9132243"/>
    <path stroke="#FEFEFE" stroke-width=".326" d="M35.5827757,17.9132243 C35.5827757,19.5877983 34.1669843,21.34752 31.9882017,21.34752 C30.6108104,21.34752 29.5606539,20.4893635 29.0414191,19.400807 C29.0414191,19.400807 29.0080278,19.3857809 28.9445843,19.1987896 L28.9328974,19.1503722 C28.76928,18.7329809 28.6807766,18.2905461 28.6807766,17.85312 C28.6741148,15.6693287 30.6976278,14.43552 31.6392626,11.3568417 C31.68768,11.1397983 31.8229148,10.9861983 32.0132452,10.9861983 C32.2336278,10.9861983 32.3388104,11.1347896 32.4106017,11.3568417 C32.7929322,12.5639374 33.3138365,13.4655026 33.8197148,14.2335026 L33.8163757,14.2201461 C33.8163757,14.2201461 35.5827757,16.6009461 35.5827757,17.9132243 Z"/>
    <path fill="#B4BFCF" d="M29.3015374,19.8517565 C29.8741983,20.7182609 30.8108243,21.347687 31.9895374,21.347687 C34.1666504,21.347687 35.5841113,19.5862957 35.5841113,17.9117217 C35.5841113,16.7563826 34.9880765,15.9216 34.271833,14.8931478 L29.3015374,19.8517565 Z"/>
    <path stroke="#FEFEFE" stroke-width=".261" d="M29.3015374,19.8517565 C29.8741983,20.7182609 30.8108243,21.347687 31.9895374,21.347687 C34.1666504,21.347687 35.5841113,19.5862957 35.5841113,17.9117217 C35.5841113,16.7563826 34.9880765,15.9216 34.271833,14.8931478 L29.3015374,19.8517565 Z"/>
    <path fill="#FEFEFE" d="M46.6833664,41.6245565 C46.8188334,41.2255304 46.9265541,40.8148174 47,40.3907478 C45.0740846,39.6210783 42.9865881,39 40.4176128,39 C36.9166903,39 34.3069117,40.1503304 31.7836361,41.2622609 C29.3435992,42.3391304 27.0406614,43.3542261 24,43.3542261 C20.9593386,43.3542261 18.6547687,42.3391304 16.2163639,41.2622609 C13.6930883,40.1503304 11.0833097,39 7.58238717,39 C5.01341186,39 2.92591541,39.6210783 1,40.3890783 C1.07344593,40.8131478 1.18116662,41.2255304 1.31663355,41.6245565 C3.20011354,40.8598957 5.14724666,40.2705391 7.58238717,40.2705391 C10.827065,40.2705391 13.2050809,41.3190261 15.7234601,42.429287 C18.1716577,43.5094957 20.703094,44.6247652 24,44.6247652 C27.296906,44.6247652 29.8283423,43.5094957 32.2749077,42.429287 C34.793287,41.3190261 37.172935,40.2705391 40.4176128,40.2705391 C42.8511212,40.2705391 44.7998865,40.8598957 46.6833664,41.6245565"/>
    <path fill="#FEFEFE" d="M40.3237847,35 C36.8428702,35 34.2480068,36.1486609 31.7391519,37.2622609 C29.31306,38.3391304 27.0232837,39.3542261 24,39.3542261 C20.9767163,39.3542261 18.6853172,38.3391304 16.2608481,37.2622609 C13.7519932,36.1486609 11.1571298,35 7.67621534,35 C5.06512383,35 2.95223312,35.6477913 1,36.4391652 L1,37.8132174 C3.01552247,36.9617391 5.06350102,36.2705391 7.67621534,36.2705391 C10.9023495,36.2705391 13.2667749,37.3190261 15.7723841,38.4309565 C18.2049672,39.5078261 20.7219361,40.6247652 24,40.6247652 C27.2780639,40.6247652 29.7950328,39.5078261 32.2292387,38.4309565 C34.7316023,37.3190261 37.0976505,36.2705391 40.3237847,36.2705391 C42.936499,36.2705391 44.9861003,36.9617391 47,37.8132174 L47,36.4391652 C45.0477669,35.6477913 42.936499,35 40.3237847,35"/>
    <path fill="#FEFEFE" d="M1,32.4408348 L1,33.8132174 C3.01552247,32.9617391 5.06350102,32.2705391 7.67621534,32.2705391 C10.9023495,32.2705391 13.2667749,33.3190261 15.7723841,34.429287 C18.2049672,35.5094957 20.7219361,36.6247652 24,36.6247652 C27.2780639,36.6247652 29.7950328,35.5094957 32.2276159,34.429287 C34.7316023,33.3190261 37.0976505,32.2705391 40.3237847,32.2705391 C42.936499,32.2705391 44.9861003,32.9617391 47,33.8132174 L47,32.4408348 C45.0477669,31.6477913 42.936499,31 40.3237847,31 C36.8428702,31 34.2480068,32.1503304 31.7391519,33.2639304 C29.31306,34.3391304 27.0232837,35.3542261 24,35.3542261 C20.9767163,35.3542261 18.6853172,34.3391304 16.2608481,33.2639304 C13.7519932,32.1503304 11.1571298,31 7.67621534,31 C5.06512383,31 2.95223312,31.6461217 1,32.4408348"/>
  </g>
</svg>

<svg xmlns="http://www.w3.org/2000/svg" width="48" height="48"><g fill="none" fill-rule="evenodd" transform="translate(0 -.555)"><rect width="48" height="48" y=".555" fill="#132D52" rx="8"/><path fill="#FEFEFE" d="M23.11 23.393c0 2.681-2.264 5.496-5.752 5.496-2.204 0-3.885-1.374-4.718-3.113 0 0-.048-.026-.15-.326l-.019-.073a5.705 5.705 0 0 1-.405-2.08c-.009-3.49 3.225-5.469 4.733-10.389.078-.349.294-.598.598-.598.357 0 .522.24.637.598.613 1.927 1.443 3.37 2.254 4.598l-.003-.018s2.825 3.808 2.825 5.905"/><path stroke="#FEFEFE" stroke-width=".326" d="M23.11 23.393c0 2.681-2.264 5.496-5.752 5.496-2.204 0-3.885-1.374-4.718-3.113 0 0-.048-.026-.15-.326l-.019-.073a5.705 5.705 0 0 1-.405-2.08c-.009-3.49 3.225-5.469 4.733-10.389.078-.349.294-.598.598-.598.357 0 .522.24.637.598.613 1.927 1.443 3.37 2.254 4.598l-.003-.018s2.825 3.808 2.825 5.905z"/><path fill="#B4BFCF" d="M13.057 26.5c.916 1.38 2.416 2.392 4.302 2.392 3.486 0 5.75-2.819 5.75-5.5 0-1.846-.95-3.184-2.097-4.827L13.057 26.5z"/><path stroke="#FEFEFE" stroke-width=".326" d="M13.057 26.5c.916 1.38 2.416 2.392 4.302 2.392 3.486 0 5.75-2.819 5.75-5.5 0-1.846-.95-3.184-2.097-4.827L13.057 26.5z"/><path fill="#FEFEFE" d="M27.321 7.156c0 1.005-.85 2.06-2.157 2.06-.826 0-1.457-.513-1.768-1.167l-.058-.122-.007-.028a2.134 2.134 0 0 1-.15-.779c-.007-1.31 1.209-2.05 1.774-3.896L25.18 3l.239.224c.229.723.54 1.262.845 1.724l-.002-.006s1.06 1.426 1.06 2.214"/><path stroke="#FEFEFE" stroke-width=".217" d="M27.321 7.156c0 1.005-.85 2.06-2.157 2.06-.826 0-1.457-.513-1.768-1.167l-.058-.122-.007-.028a2.134 2.134 0 0 1-.15-.779c-.007-1.31 1.209-2.05 1.774-3.896L25.18 3l.239.224c.229.723.54 1.262.845 1.724l-.002-.006s1.06 1.426 1.06 2.214z"/><path fill="#B4BFCF" d="M23.55 8.32c.344.52.907.896 1.615.896 1.307 0 2.157-1.057 2.157-2.062 0-.69-.358-1.193-.787-1.81L23.55 8.32z"/><path stroke="#FEFEFE" stroke-width=".217" d="M23.55 8.32c.344.52.907.896 1.615.896 1.307 0 2.157-1.057 2.157-2.062 0-.69-.358-1.193-.787-1.81L23.55 8.32z"/><path fill="#FEFEFE" d="M35.583 17.913c0 1.675-1.416 3.435-3.595 3.435-1.377 0-2.427-.859-2.947-1.947 0 0-.033-.015-.096-.202l-.012-.049a3.571 3.571 0 0 1-.252-1.297c-.007-2.184 2.017-3.417 2.958-6.496.049-.217.184-.37.374-.37.22 0 .326.148.398.37.382 1.207.903 2.109 1.409 2.877l-.004-.014s1.767 2.38 1.767 3.693"/><path stroke="#FEFEFE" stroke-width=".326" d="M35.583 17.913c0 1.675-1.416 3.435-3.595 3.435-1.377 0-2.427-.859-2.947-1.947 0 0-.033-.015-.096-.202l-.012-.049a3.571 3.571 0 0 1-.252-1.297c-.007-2.184 2.017-3.417 2.958-6.496.049-.217.184-.37.374-.37.22 0 .326.148.398.37.382 1.207.903 2.109 1.409 2.877l-.004-.014s1.767 2.38 1.767 3.693z"/><path fill="#B4BFCF" d="M29.302 19.852c.572.866 1.509 1.496 2.688 1.496 2.177 0 3.594-1.762 3.594-3.436 0-1.156-.596-1.99-1.312-3.019l-4.97 4.959z"/><path stroke="#FEFEFE" stroke-width=".261" d="M29.302 19.852c.572.866 1.509 1.496 2.688 1.496 2.177 0 3.594-1.762 3.594-3.436 0-1.156-.596-1.99-1.312-3.019l-4.97 4.959z"/><path fill="#FEFEFE" d="M46.683 41.625A8.17 8.17 0 0 0 47 40.39c-1.926-.77-4.013-1.39-6.582-1.39-3.501 0-6.111 1.15-8.634 2.262-2.44 1.077-4.743 2.092-7.784 2.092-3.04 0-5.345-1.015-7.784-2.092C13.693 40.15 11.083 39 7.582 39c-2.569 0-4.656.621-6.582 1.39.073.423.181.836.317 1.235 1.883-.765 3.83-1.354 6.265-1.354 3.245 0 5.623 1.048 8.141 2.158 2.449 1.08 4.98 2.196 8.277 2.196 3.297 0 5.828-1.116 8.275-2.196 2.518-1.11 4.898-2.158 8.143-2.158 2.433 0 4.382.589 6.265 1.354"/><path fill="#FEFEFE" d="M40.324 35c-3.481 0-6.076 1.149-8.585 2.262-2.426 1.077-4.716 2.092-7.739 2.092-3.023 0-5.315-1.015-7.74-2.092C13.753 36.15 11.158 35 7.677 35c-2.61 0-4.724.648-6.676 1.44v1.373c2.016-.851 4.064-1.542 6.676-1.542 3.226 0 5.59 1.048 8.096 2.16 2.433 1.077 4.95 2.194 8.228 2.194 3.278 0 5.795-1.117 8.23-2.194 2.502-1.112 4.868-2.16 8.094-2.16 2.612 0 4.662.69 6.676 1.542V36.44c-1.953-.792-4.065-1.44-6.677-1.44"/><path fill="#FEFEFE" d="M1 32.44v1.373c2.016-.851 4.064-1.542 6.676-1.542 3.226 0 5.59 1.048 8.096 2.158 2.433 1.08 4.95 2.196 8.228 2.196 3.278 0 5.795-1.116 8.228-2.196 2.504-1.11 4.87-2.158 8.096-2.158 2.612 0 4.662.69 6.676 1.542v-1.372C45.048 31.648 42.936 31 40.324 31c-3.481 0-6.076 1.15-8.585 2.264-2.426 1.075-4.716 2.09-7.739 2.09-3.023 0-5.315-1.015-7.74-2.09C13.753 32.15 11.158 31 7.677 31c-2.61 0-4.724.646-6.676 1.44"/></g></svg>
